X:921
T:Poor Cato
S:Bruce & Emmett's Drummers and Fifers Guide (1862), p. 92
M:2/4
L:1/8
Q:1/4=100
K:D
%%MIDI program 72
%%MIDI transpose 8
%%MIDI ratio 3 1
A|{B}AF {B}AF|{B}AF {B}AF|{c}BABc|d/c/d/e/ f2|
{B}AF {B}AF|{B}AF {B}AF|EDEC|D2z::(3(A/B/c/)|dA f>e|
dA fe/f/|gfed|c/d/B/c/ AB/c/|dA f>e|dA fe/f/|
gedc|d2z::A|Bd/d/ dc|B^ABF|Bd/d/ dc/B/|
A/F/A/d/ f2|Bd/d/ dc|B^ABF|B/c/d/e/ f^A|B2z:|

